X: 1
T: Morning Mist
M: C|
L: 1/8
R: reel
C: Martin Mulhaire
Z: Bill Black <Zouki@aol.com>
H: transcribed from playing of Martin Mulvihill; in BB Tunebook vol 1
K: G
Bc \
| d2BG dGBG | d2BG DGBd | c2A=F cFAF | c2A=F CFAc |
| d2BG dGBG | d2BG DGBd | c2AB cedc | BGAF G2 :|
|: Bd \
| g2dc Bdd2 | BGG2 DGBd | ageg abag | fdad bdad |
| gedc Bdd2 | BGG2 DGBd | c2AB cedc | BGAF G2 :|
